X:560
T: WO IST DENN DAS MAEDCHEN
N: E0530A
O: Europa, Mitteleuropa, Deutschland, Hessen, Odenwald, Alsbach
R: Liebes - Lied
M: 3/8
L: 1/16
K: A
E2 | A3GA2 | B3AB2 | c3dc2 | B4
Bc | d3ed2 | c3BA2 | cBA2G2 | A4
Bc | d3ed2 | c3BA2 | cBA2G2 | A4

